app/dist/common/images/south32.svg

<svg height="18" width="18" xmlns="http://www.w3.org/2000/svg"><path d="m0 0h18v18h-18z" fill="#54595c"/><path d="m5 5h3.6v1.01h-3.6zm4.4 4.4h3.6v.8h-3.6zm-.8-3h-3.6v.8h3.6zm.8 4.4h3.6v.8h-3.6zm-.8-3h-3.6v.8h3.6zm.8 4.22h3.6v.98h-3.6zm.8-7.02h-.8v3.6h.8zm-5.2 4.4h1.02v3.6h-1.02zm6.6-4.4h-.8v3.6h.8zm-5.2 4.4h.8v3.6h-.8zm6.6-4.4h-.99v3.6h.99zm-5.2 4.4h.8v3.6h-.8z" fill="#eada23"/></svg>

<!-- by TradingView --><svg xmlns="http://www.w3.org/2000/svg" width="18" height="18"><path fill="#54595C" d="M0 0h18v18H0z"/><path d="M5 5h3.6v1.01H5V5zm4.4 4.4H13v.8H9.4v-.8zm-.8-3H5v.8h3.6v-.8zm.8 4.4H13v.8H9.4v-.8zm-.8-3H5v.8h3.6v-.8zm.8 4.22H13V13H9.4v-.98zM10.2 5h-.8v3.6h.8V5zM5 9.4h1.02V13H5V9.4zM11.6 5h-.8v3.6h.8V5zM6.4 9.4h.8V13h-.8V9.4zM13 5h-.99v3.6H13V5zM7.8 9.4h.8V13h-.8V9.4z" fill="#EADA23"/></svg>
